src/assets/img/smiles/3.svg

<svg width="65" height="65" viewBox="0 0 65 65" fill="none" xmlns="http://www.w3.org/2000/svg">
<path d="M61.294 32.644C61.294 49.015 48.02 62.287 31.647 62.287C15.273 62.287 2 49.015 2 32.644C2 16.272 15.273 3 31.647 3C48.02 3 61.294 16.272 61.294 32.644Z" fill="#EDC951"/>
<path d="M39.4301 46.669C37.0641 46.669 34.7991 45.516 32.6871 43.236C30.9811 41.394 29.1011 40.434 27.0981 40.384C23.4041 40.27 20.3231 43.257 20.2931 43.287C19.7021 43.866 18.7531 43.856 18.1741 43.267C17.5941 42.677 17.5991 41.731 18.1881 41.15C18.3471 40.992 22.1411 37.308 27.1461 37.385C29.9991 37.448 32.6041 38.731 34.8881 41.198C36.5291 42.97 38.1941 43.791 39.8141 43.652C42.9351 43.379 45.2861 39.778 45.3091 39.741C45.7581 39.046 46.6841 38.841 47.3811 39.288C48.0771 39.734 48.2821 40.658 47.8391 41.355C47.7121 41.554 44.6901 46.224 40.0951 46.639C39.8731 46.659 39.6511 46.669 39.4301 46.669Z" fill="black"/>
<path d="M44.998 22.984C44.998 24.965 43.3919 26.57 41.4119 26.57C39.4299 26.57 37.825 24.965 37.825 22.984C37.825 21.004 39.4299 19.399 41.4119 19.399C43.3919 19.399 44.998 21.004 44.998 22.984Z" fill="black"/>
<path d="M24.3771 22.984C24.3771 24.965 22.7711 26.57 20.7901 26.57C18.8091 26.57 17.2041 24.965 17.2041 22.984C17.2041 21.004 18.8091 19.399 20.7901 19.399C22.7711 19.399 24.3771 21.004 24.3771 22.984Z" fill="black"/>
<path d="M31.147 62.29C13.972 62.29 0 48.319 0 31.147C0 13.975 13.972 0.0039978 31.147 0.0039978C48.322 0.0039978 62.295 13.975 62.295 31.147C62.295 48.319 48.322 62.29 31.147 62.29ZM31.147 3.004C15.627 3.004 3 15.628 3 31.147C3 46.666 15.627 59.291 31.147 59.291C46.668 59.291 59.295 46.666 59.295 31.147C59.295 15.628 46.668 3.004 31.147 3.004Z" fill="black"/>
</svg>

<?xml version="1.0" encoding="iso-8859-1"?>
<!-- Generator: Adobe Illustrator 19.1.0, SVG Export Plug-In . SVG Version: 6.00 Build 0)  -->
<svg version="1.1" id="Capa_1" xmlns="http://www.w3.org/2000/svg" xmlns:xlink="http://www.w3.org/1999/xlink" x="0px" y="0px"
	 viewBox="0 0 64.5 64.5" style="enable-background:new 0 0 64.5 64.5;" xml:space="preserve">
<g>
	<g id="group-10svg">
		<path id="path-1" style="fill:#EDC951;" d="M64.5,34.853c0,16.371-13.274,29.643-29.647,29.643
			c-16.374,0-29.647-13.272-29.647-29.643c0-16.372,13.273-29.644,29.647-29.644C51.226,5.209,64.5,18.481,64.5,34.853z"/>
		<path id="path-2" d="M39.43,46.669c-2.366,0-4.631-1.153-6.743-3.433c-1.706-1.842-3.586-2.802-5.589-2.852
			c-3.694-0.114-6.775,2.873-6.805,2.903c-0.591,0.579-1.54,0.569-2.119-0.02c-0.58-0.59-0.575-1.536,0.014-2.117
			c0.159-0.158,3.953-3.842,8.958-3.765c2.853,0.063,5.458,1.346,7.742,3.813c1.641,1.772,3.306,2.593,4.926,2.454
			c3.121-0.273,5.472-3.874,5.495-3.911c0.449-0.695,1.375-0.9,2.072-0.453c0.696,0.446,0.901,1.37,0.458,2.067
			c-0.127,0.199-3.149,4.869-7.744,5.284C39.873,46.659,39.651,46.669,39.43,46.669z"/>
		<path id="path-3" d="M44.998,22.984c0,1.981-1.606,3.586-3.586,3.586c-1.982,0-3.587-1.605-3.587-3.586
			c0-1.98,1.605-3.585,3.587-3.585C43.392,19.399,44.998,21.004,44.998,22.984z"/>
		<path id="path-4" d="M24.377,22.984c0,1.981-1.606,3.586-3.587,3.586s-3.586-1.605-3.586-3.586c0-1.98,1.605-3.585,3.586-3.585
			S24.377,21.004,24.377,22.984z"/>
		<path id="path-5" d="M31.147,62.29C13.972,62.29,0,48.319,0,31.147S13.972,0.004,31.147,0.004s31.148,13.971,31.148,31.143
			S48.322,62.29,31.147,62.29z M31.147,3.004C15.627,3.004,3,15.628,3,31.147s12.627,28.144,28.147,28.144
			c15.521,0,28.148-12.625,28.148-28.144S46.668,3.004,31.147,3.004z"/>
	</g>
</g>
<g>
</g>
<g>
</g>
<g>
</g>
<g>
</g>
<g>
</g>
<g>
</g>
<g>
</g>
<g>
</g>
<g>
</g>
<g>
</g>
<g>
</g>
<g>
</g>
<g>
</g>
<g>
</g>
<g>
</g>
</svg>
